!!!OTL: K-K-K-Katy
!!!COM: O'Hara, Geoffrey
!!!LAR: Frey, Hugo
!! "K-K-K-Katy" by Geoffrey O'Hara
!! from "Barbershop Memories" compiled and arranged by Hugo Frey
!! copyright 1975 by EMI Music Publ. Ltd.; p. 23; in C major
!! NOTE:  The second ending is encoded.
**kern	**kern	**kern	**kern
*Ivox	*Ivox	*Ivox	*Ivox
*M4/4	*M4/4	*M4/4	*M4/4
*C:	*C:	*C:	*C:
=1	=1	=1	=1
8.GG	8.F	8.G	8.B
16GG	16F	16G	16B
8.D	8.F	8.G	8.B
16D	16F	16G	16B
4E	4G	4A	4c
4E-	4G	4A#	4c#
=2	=2	=2	=2
4D	4G	4B	4d
4C#	4G	4A#	4e
4D;	4G;	4B;	4f;
12GG	12B	12G	12f
12GG	12c	12A	12f
12GG	12d	12B	12f
=3	=3	=3	=3
4C	4G	4c	4e
2C	2E	2G	2c
12AA	12A	12G	12c#
12AA	12A	12F#	12c#
12AA	12G	12E	12c#
=4	=4	=4	=4
4D	4F#	4D	4cn
2D	2F#	2A	2c
8.D	8.F#	8.B	8.d
16D	16F#	16A	16c
=5	=5	=5	=5
8.D	8.Fn	8.G	8.B
16D	16F	16A	16c
12GG	12F	12B	12d
12GG	12F	12B	12d
12GG	12F	12A	12c
8.D	8.F	8.G	8.B
16GG	16A	16F	16B
8.GG	8.G	8.E	8.B
16GG	16F	16D	16B
=6	=6	=6	=6
{4C	{2E	2G	{4c
4C#	.	.	4B-
12D}	12F}	12G	12Bn}
12r	12G	12G	12r
12r	12G	12G	12r
12F	12G	12G	12B
12E	12G	12A	12c
12D	12G	12B	12d
=7	=7	=7	=7
4C	4G	4c	4e
2C	2E	2G	2c
12AA	12A	12G	12c#
12AA	12A	12F	12c
12AA	12G	12E	12c#
=8	=8	=8	=8
4D	4F#	4D	4cn
2D	2F#	2A	2c
8.D	8.d	8.B	8.f#
16D	16c	16A	16f#
=9	=9	=9	=9
8.D	8.B	8.G	8.fn
16D	16c	16A	16f
8.GG	8.d	8.B	8.f
16GG	16c	16A	16f
12D	12B	12G	12f
12D	12B	12G	12f
12GG	12A	12F	12B
8.GG	8.G	8.E	8.B
16GG	16F	16D	16B
=10	=10	=10	=10
{2C	{2E	{2C	{2c
2E;}	2A;}	2c;}	2g;}
==	==	==	==
*-	*-	*-	*-
